!!!OTL: Herr von Falkenstein. / (Neuere Melodie.)
!!!ARE: Europa, Mitteleuropa, Deutschland
!!!SCT: A0029
!!!TXL: @@DUM
!!!YEM: Copyright 1995, estate of Helmut Schaffrath.
**kern	**text
*M4/4	*
*met(c)	*
*k[b-e-]	*
*g:	*
!LO:TX:a:t=moll.	!
{4dd	Jck
=1	=1
4dd	ſach
8cc	minen
8b-	.
8a\	He-
8a\	-ren
4dd	van
=2	=2
4dd	Val-
8ccL	-kenſteen
8b-J	.
4.a}	.
{8cc	to
=3	=3
4.b-/	ſi-
8a	-ner
4g	Burch
4g	up-
=4	=4
2f#	-rie-
4g}	-den,
{8g	e-
8g	-nen
=5	=5
4a	Schild
8b-	had-
8b-	-de
4cc	he
4a	in
=6	=6
4b-	ſi-
4cc	-ner
4.dd}	Hand,
{8cc	blank
=7	=7
4b-/	Swert
4a	an
4g	ſi-
4b-	-ner
=8	=8
2a	Sieden.
4g}	.
==	==
!!!GTL: Balladen und Romanzen (erzählende Volkslieder)
!!!AGN: Romanze, Ballade, Lied
!!  Die Melodie hat zuerst Kretzschmer, Volkslieder II. 1840
!!    No. 38 aus muendlicher Ueberlieferung mitgeteilt, und den Text aus dem
!!    Museum (Deutsches Museum 1785, Leipzig II, 381) uebersetzt.
!!!ONB: ESAC (Essen Associative Code) Database: ALTDEU
!!!AMT: simple quadruple
!!!AIN: vox
!!!EED: Helmut Schaffrath
!!!EEV: 1.0
!!!URL-scan: https://rosdok.uni-rostock.de/mcrviewer/recordIdentifier/rosdok_ppn738218359/iview2/phys_0173.iview2?x=-425.8853427895981&y=1620.480378248496&scale=0.4823261117445838&rotation=0&layout=singlePageLayout&logicalDiv=log_0007
!!!ENC: Anna Maria Matuszewska
!!!EEV: 2024/19/02
*-	*-
